!!!OTL: Mahnlied
!!!ARE: Europa, Mitteleuropa, Deutschland
!!!SCT: A0399B
!!!YEM: Copyright 1995, estate of Helmut Schaffrath.
**kern
*ICvox
*Ivox
*M4/2
*k[b-]
*d:
{2d
=1
2d
2d
2fn
2d
=2
4fn
4e
4fn
4g
2a}
{2e
=3
2fn
2a
4g
4fn
2g
=4
1a
2r}
{2d
=5
2d
2d
2fn
2d
=6
4fn
4e
4fn
4g
2a}
{2e
=7
2fn
2a
4g
4fn
2g
=8
1a
2r}
{4f#
4a
=9
2a
2a
2a
2a
=10
1g
2e}
{2a
=11
2g
2fn
2e
2d
=12
1cn
2r}
{2e
=13
2g
2a
2a
2d
=14
4fn
4e
4fn
4g
2a}
{2a
=15
2a
2g
2fn
2e
=16
1d
2r}
==
!!!AGN: Romanze, Ballade, Lied, religioeses Lied
!! Dresdner Codex M. 53, vor 1560.
!!!ONB: ESAC (Essen Associative Code) Database: ALTDEU
!!!AMT: simple quadruple
!!!AIN: vox
!!!EED: Helmut Schaffrath
!!!EEV: 1.0
*-
